pages/zim/img/icon/facebook.svg

<svg width="24" height="24" viewBox="0 0 24 24" fill="none" xmlns="http://www.w3.org/2000/svg">
<path d="M12 0C5.37256 0 0 5.2602 0 11.749C0 18.2379 5.37256 23.498 12 23.498C18.6274 23.498 24 18.2379 24 11.749C24 5.2602 18.6274 0 12 0ZM16.578 5.98329L14.9183 5.98401C13.6168 5.98401 13.3651 6.58955 13.3651 7.47803V9.4372H16.4688L16.4673 12.5058H13.3654V20.3804H10.1281V12.5058H7.42195V9.4372H10.1281V7.17418C10.1281 4.54792 11.767 3.11761 14.1596 3.11761L16.5783 3.12121V5.98329H16.578Z" fill="white" fill-opacity="0.75"/>
</svg>

<svg width="24" height="24" fill="none" xmlns="http://www.w3.org/2000/svg"><path d="M12 0C5.373 0 0 5.26 0 11.749c0 6.489 5.373 11.749 12 11.749s12-5.26 12-11.749C24 5.26 18.627 0 12 0zm4.578 5.983l-1.66.001c-1.301 0-1.553.606-1.553 1.494v1.96h3.104l-.002 3.068h-3.102v7.874h-3.237v-7.874H7.422V9.437h2.706V7.174c0-2.626 1.639-4.056 4.032-4.056l2.418.003v2.862z" fill="#fff" fill-opacity=".75"/></svg>
